X:45
T:Banshee, The
T:McMahon's
E:7
I:speed 350
R:reel
M:C|
K:G
D|~G3D EDEG|AGAB d2Bd|efge dBGA|BAGE EDDE|\
~G3D ~E3D|~G3B d2Bd|efge dBGA|BAGE D3||*
B|eaag efge|dBBA B3 z|eB~B2 Bgfg|eBBA B4|\
eaag efge|dBBA ~B3z|efge dBGA|BAGE EDD||**
<end>
<start>
